static/pay/master.svg

<svg width="55" height="30" viewBox="0 0 55 30" fill="none" xmlns="http://www.w3.org/2000/svg">
<g clip-path="url(#clip0)">
<path d="M17.7873 0C9.61598 0.0516542 3 6.71409 3 14.9145C3 23.1472 9.66709 29.8281 17.8828 29.8281C21.7367 29.8281 25.2515 28.356 27.896 25.9422L27.8954 25.9416H27.8975C28.44 25.4472 28.9452 24.9124 29.409 24.3443H26.3606C25.9531 23.852 25.5829 23.3375 25.2505 22.8073H30.5085C30.8296 22.2949 31.1179 21.7627 31.3762 21.2114H24.3835C24.1448 20.6991 23.9376 20.177 23.7612 19.6447H31.9985C32.4961 18.1578 32.7645 16.5667 32.7645 14.9145C32.7645 13.8172 32.6453 12.7496 32.4219 11.7198H23.324C23.4376 11.1896 23.5792 10.6665 23.7479 10.1536H31.9894C31.8053 9.60646 31.591 9.0742 31.3477 8.5567H24.3825C24.6336 8.01829 24.9183 7.49628 25.2359 6.98999H30.4907C30.1405 6.43109 29.7539 5.89733 29.3361 5.39418H26.4063C26.8599 4.85878 27.3578 4.35522 27.8983 3.88842C25.2548 1.47351 21.7396 0.000409729 17.8837 0.000409729C17.8502 -2.25198e-07 17.8185 0 17.7873 0Z" fill="#931B1D"/>
<path d="M52.7266 14.9192C52.7281 23.155 46.0688 29.8333 37.8473 29.8358C29.6293 29.8384 22.9649 23.1626 22.9624 14.9253V14.9192C22.9598 6.68089 29.6213 0.00205079 37.8407 1.01492e-06C46.0596 -0.00300532 52.7247 6.67324 52.7267 14.911C52.7266 14.911 52.7266 14.9147 52.7266 14.9192Z" fill="#F16622"/>
<path d="M52.7266 15.0829C52.7281 23.3192 46.0688 29.9985 37.8473 30C29.6293 30.003 22.9649 23.3264 22.9624 15.0906V15.0829C22.9598 6.84611 29.6213 0.166724 37.8407 0.164674C46.0596 0.161668 52.7247 6.83791 52.7267 15.0751C52.7266 15.0753 52.7266 15.0799 52.7266 15.0829Z" fill="#F7981D"/>
<path d="M17.7868 0.16896C9.61549 0.221571 2.99951 6.88251 2.99951 15.0835C2.99951 23.3168 9.6666 29.9981 17.8824 29.9981C21.7362 29.9981 25.251 28.5249 27.8955 26.1115L27.8949 26.11H27.897C28.4395 25.6161 28.9447 25.0828 29.4085 24.5127H26.3601C25.9526 24.0213 25.5824 23.5079 25.2501 22.9777H30.508C30.8291 22.4649 31.1175 21.9311 31.3757 21.3804H24.383C24.1443 20.8675 23.9371 20.3455 23.7607 19.8142H31.998C32.4956 18.3262 32.764 16.7356 32.764 15.0835C32.764 13.9867 32.6448 12.9185 32.4214 11.8893H23.3235C23.4371 11.3596 23.5787 10.8354 23.7474 10.3231H31.9889C31.8048 9.77556 31.5905 9.24316 31.3472 8.72525H24.382C24.6331 8.18889 24.9179 7.66484 25.2354 7.15909H30.4902C30.14 6.60073 29.7534 6.06738 29.3357 5.56218H26.4058C26.8594 5.02787 27.3574 4.52418 27.8978 4.05642C25.2543 1.64192 21.7391 0.168823 17.8832 0.168823C17.8497 0.16896 17.818 0.16896 17.7868 0.16896Z" fill="#CB2026"/>
<path d="M23.2332 18.881L23.4322 17.5315C23.3238 17.5315 23.1642 17.5776 23.0236 17.5776C22.4724 17.5776 22.411 17.2841 22.4468 17.0668L22.8921 14.3123H23.7302L23.9327 12.8187H23.1428L23.3039 11.8911H21.7189C21.6846 11.9258 20.7832 17.1132 20.7832 17.7436C20.7832 18.6789 21.3063 19.0955 22.0456 19.0894C22.6232 19.084 23.0747 18.924 23.2332 18.881Z" fill="white"/>
<path d="M23.7368 16.3082C23.7368 18.5525 25.214 19.0862 26.4734 19.0862C27.6362 19.0862 28.147 18.825 28.147 18.825L28.4267 17.2931C28.4267 17.2931 27.5427 17.6858 26.744 17.6858C25.0428 17.6858 25.341 16.4137 25.341 16.4137H28.5617C28.5617 16.4137 28.7687 15.3839 28.7687 14.9647C28.7687 13.919 28.2482 12.6438 26.5092 12.6438C24.9154 12.6442 23.7368 14.3637 23.7368 16.3082ZM26.5159 14.0651C27.4097 14.0651 27.2445 15.0724 27.2445 15.1537H25.4855C25.485 15.05 25.6513 14.0651 26.5159 14.0651Z" fill="white"/>
<path d="M36.5478 18.8809L36.8316 17.148C36.8316 17.148 36.0539 17.5407 35.5205 17.5407C34.3967 17.5407 33.9462 16.6786 33.9462 15.7562C33.9462 13.8806 34.9131 12.8488 35.9905 12.8488C36.7974 12.8488 37.4457 13.3038 37.4457 13.3038L37.704 11.6226C37.704 11.6226 36.7432 11.2319 35.92 11.2319C34.0905 11.2319 32.3101 12.8206 32.3101 15.8098C32.3101 17.7886 33.2718 19.098 35.1627 19.098C35.6968 19.0983 36.5478 18.8809 36.5478 18.8809Z" fill="white"/>
<path d="M14.5184 12.6677C13.4319 12.6677 12.5988 13.017 12.5988 13.017L12.3693 14.3853C12.3693 14.3853 13.0574 14.1061 14.096 14.1061C14.686 14.1061 15.117 14.1721 15.117 14.6533C15.117 14.9447 15.0644 15.0526 15.0644 15.0526C15.0644 15.0526 14.5997 15.0132 14.3839 15.0132C13.0141 15.0132 11.5742 15.5992 11.5742 17.3673C11.5742 18.7591 12.5181 19.0791 13.1036 19.0791C14.2218 19.0791 14.7024 18.3526 14.7291 18.3494L14.6769 18.9568H16.0718L16.6945 14.5825C16.6945 12.7274 15.0792 12.6677 14.5184 12.6677ZM14.8584 16.2275C14.8886 16.4949 14.6907 17.7476 13.7366 17.7476C13.2446 17.7476 13.1163 17.3703 13.1163 17.1473C13.1163 16.7131 13.3521 16.1911 14.5137 16.1911C14.7832 16.1911 14.8123 16.2208 14.8584 16.2275Z" fill="white"/>
<path d="M18.1787 19.0457C18.5351 19.0457 20.5753 19.1372 20.5753 17.0275C20.5753 15.0548 18.6871 15.444 18.6871 14.6514C18.6871 14.2582 18.9949 14.1324 19.5573 14.1324C19.7807 14.1324 20.6402 14.2045 20.6402 14.2045L20.8407 12.8015C20.8407 12.8015 20.2844 12.6777 19.3793 12.6777C18.2059 12.6777 17.017 13.1451 17.017 14.7501C17.017 16.5698 19.0009 16.3858 19.0009 17.1517C19.0009 17.663 18.4461 17.705 18.0187 17.705C17.2804 17.705 16.6151 17.4508 16.612 17.4626L16.4009 18.8497C16.4378 18.8627 16.8488 19.0457 18.1787 19.0457Z" fill="white"/>
<path d="M49.6734 11.4091L49.3323 13.5341C49.3323 13.5341 48.7356 12.7094 47.8025 12.7094C46.3499 12.7094 45.1401 14.4632 45.1401 16.4794C45.1401 17.7807 45.7849 19.0544 47.1052 19.0544C48.0546 19.0544 48.5798 18.3913 48.5798 18.3913L48.5108 18.9573H50.0519L51.2632 11.4056L49.6734 11.4091ZM48.9381 15.5544C48.9381 16.3925 48.523 17.5116 47.6644 17.5116C47.0937 17.5116 46.8274 17.032 46.8274 16.2793C46.8274 15.049 47.3786 14.235 48.0739 14.235C48.6451 14.2351 48.9381 14.6288 48.9381 15.5544Z" fill="white"/>
<path d="M5.93794 18.964L6.90379 13.2628L7.04441 18.964H8.13652L10.173 13.2628L9.2706 18.964H10.8925L12.1427 11.4042H9.63381L8.07175 16.0419L7.99044 11.4042H5.67871L4.41113 18.964H5.93794Z" fill="white"/>
<path d="M30.3522 18.9744C30.8134 16.3467 30.8988 14.2119 32.0002 14.6011C32.193 13.5846 32.3786 13.1914 32.5882 12.7604C32.5882 12.7604 32.4901 12.7395 32.2824 12.7395C31.5743 12.7395 31.048 13.711 31.048 13.711L31.1881 12.8192H29.7124L28.7251 18.9744H30.3522Z" fill="white"/>
<path d="M40.2029 12.6677C39.1164 12.6677 38.2839 13.017 38.2839 13.017L38.0549 14.3853C38.0549 14.3853 38.7416 14.1061 39.7811 14.1061C40.3706 14.1061 40.8027 14.1721 40.8027 14.6533C40.8027 14.9447 40.7496 15.0526 40.7496 15.0526C40.7496 15.0526 40.2848 15.0132 40.0674 15.0132C38.697 15.0132 37.2588 15.5992 37.2588 17.3673C37.2588 18.7591 38.2032 19.0791 38.7882 19.0791C39.9064 19.0791 40.3876 18.3526 40.4131 18.3494L40.3615 18.9568H41.7574L42.3797 14.5825C42.3802 12.7274 40.7654 12.6677 40.2029 12.6677ZM40.5435 16.2275C40.5737 16.4949 40.3768 17.7476 39.4212 17.7476C38.9298 17.7476 38.8024 17.3703 38.8024 17.1473C38.8024 16.7131 39.0381 16.1911 40.1978 16.1911C40.4689 16.1911 40.497 16.2208 40.5435 16.2275Z" fill="white"/>
<path d="M43.6547 18.9744C44.1164 16.3467 44.2018 14.2119 45.3031 14.6011C45.4959 13.5846 45.6815 13.1914 45.8922 12.7604C45.8922 12.7604 45.7924 12.7395 45.586 12.7395C44.8758 12.7395 44.3512 13.711 44.3512 13.711L44.4923 12.8192H43.0157L42.0278 18.9739H43.6548L43.6547 18.9744Z" fill="white"/>
</g>
<defs>
<clipPath id="clip0">
<rect width="54.5455" height="30" fill="white" transform="translate(0.272461)"/>
</clipPath>
</defs>
</svg>

<svg width="55" height="30" fill="none" xmlns="http://www.w3.org/2000/svg"><g clip-path="url(#clip0)"><path d="M17.787 0C9.616.052 3 6.714 3 14.915c0 8.232 6.667 14.913 14.883 14.913 3.854 0 7.369-1.472 10.013-3.886h.002a14.971 14.971 0 001.511-1.598h-3.048a14.44 14.44 0 01-1.11-1.537h5.258c.32-.512.609-1.044.867-1.596h-6.992a14.522 14.522 0 01-.623-1.566H32a15.047 15.047 0 00.423-7.925h-9.098c.114-.53.255-1.054.424-1.566h8.241a14.975 14.975 0 00-.641-1.597h-6.965c.25-.539.535-1.06.853-1.567h5.255a14.805 14.805 0 00-1.155-1.596h-2.93c.454-.535.952-1.039 1.492-1.506A14.801 14.801 0 0017.884 0h-.097z" fill="#931B1D"/><path d="M52.727 14.92c.001 8.235-6.658 14.913-14.88 14.916-8.218.002-14.882-6.673-14.885-14.91v-.007C22.96 6.681 29.622.002 37.841 0c8.219-.003 14.884 6.673 14.886 14.911v.008z" fill="#F16622"/><path d="M52.727 15.083c.001 8.236-6.658 14.915-14.88 14.917-8.218.003-14.882-6.674-14.885-14.91v-.007C22.96 6.846 29.622.167 37.841.165c8.219-.003 14.884 6.673 14.886 14.91v.008z" fill="#F7981D"/><path d="M17.787.169C9.615.222 3 6.883 3 15.084c0 8.233 6.667 14.914 14.882 14.914a14.81 14.81 0 0010.013-3.887v-.001h.002a14.737 14.737 0 001.512-1.597H26.36a14.31 14.31 0 01-1.11-1.535h5.258c.321-.513.61-1.047.868-1.598h-6.993a14.647 14.647 0 01-.622-1.566h8.237a15.042 15.042 0 00.423-7.925h-9.098c.114-.53.256-1.054.424-1.566h8.242a14.992 14.992 0 00-.642-1.598h-6.965c.251-.536.536-1.06.853-1.566h5.255a15.093 15.093 0 00-1.154-1.597h-2.93c.453-.534.951-1.038 1.492-1.506A14.803 14.803 0 0017.883.17h-.096z" fill="#CB2026"/><path d="M23.233 18.881l.2-1.35c-.11 0-.269.047-.41.047-.55 0-.612-.294-.576-.511l.445-2.755h.838l.203-1.493h-.79l.16-.928H21.72c-.034.035-.936 5.222-.936 5.853 0 .935.523 1.352 1.263 1.345.577-.005 1.029-.165 1.187-.208zM23.737 16.308c0 2.244 1.477 2.778 2.736 2.778 1.163 0 1.674-.261 1.674-.261l.28-1.532s-.884.393-1.683.393c-1.701 0-1.403-1.272-1.403-1.272h3.22s.208-1.03.208-1.45c0-1.045-.52-2.32-2.26-2.32-1.594 0-2.772 1.72-2.772 3.664zm2.779-2.243c.894 0 .729 1.007.729 1.089h-1.76c0-.104.166-1.089 1.03-1.089zM36.548 18.88l.284-1.732s-.778.393-1.312.393c-1.123 0-1.574-.862-1.574-1.785 0-1.875.967-2.907 2.044-2.907.807 0 1.456.455 1.456.455l.258-1.681s-.96-.391-1.784-.391c-1.83 0-3.61 1.589-3.61 4.578 0 1.979.962 3.288 2.853 3.288.534 0 1.385-.217 1.385-.217zM14.518 12.668c-1.086 0-1.92.349-1.92.349l-.229 1.368s.688-.279 1.727-.279c.59 0 1.021.066 1.021.547 0 .292-.053.4-.053.4s-.464-.04-.68-.04c-1.37 0-2.81.586-2.81 2.354 0 1.392.944 1.712 1.53 1.712 1.118 0 1.598-.726 1.625-.73l-.052.608h1.395l.623-4.375c0-1.855-1.616-1.914-2.177-1.914zm.34 3.56c.03.267-.167 1.52-1.121 1.52-.492 0-.62-.378-.62-.6 0-.435.235-.957 1.397-.957.27 0 .298.03.344.037zM18.179 19.046c.356 0 2.396.091 2.396-2.018 0-1.973-1.888-1.584-1.888-2.377 0-.393.308-.519.87-.519.224 0 1.083.072 1.083.072l.2-1.402s-.556-.124-1.46-.124c-1.174 0-2.363.467-2.363 2.072 0 1.82 1.984 1.636 1.984 2.402 0 .511-.555.553-.982.553-.739 0-1.404-.254-1.407-.242l-.211 1.387c.037.013.448.196 1.778.196zM49.673 11.41l-.34 2.124s-.597-.825-1.53-.825c-1.453 0-2.663 1.754-2.663 3.77 0 1.302.645 2.575 1.965 2.575.95 0 1.475-.663 1.475-.663l-.07.566h1.542l1.211-7.551-1.59.003zm-.735 4.144c0 .838-.415 1.958-1.274 1.958-.57 0-.837-.48-.837-1.233 0-1.23.552-2.044 1.247-2.044.571 0 .864.394.864 1.32zM5.938 18.964l.966-5.701.14 5.701h1.093l2.036-5.701-.902 5.701h1.621l1.25-7.56H9.635l-1.562 4.638-.082-4.638H5.68l-1.268 7.56h1.527zM30.352 18.974c.461-2.627.547-4.762 1.648-4.373.193-1.016.379-1.41.588-1.84 0 0-.098-.021-.306-.021-.708 0-1.234.971-1.234.971l.14-.892h-1.476l-.987 6.155h1.627zM40.203 12.668c-1.087 0-1.92.349-1.92.349l-.228 1.368s.687-.279 1.726-.279c.59 0 1.022.066 1.022.547 0 .292-.053.4-.053.4s-.465-.04-.683-.04c-1.37 0-2.808.586-2.808 2.354 0 1.392.944 1.712 1.53 1.712 1.117 0 1.599-.726 1.624-.73l-.051.608h1.395l.623-4.375c0-1.855-1.615-1.914-2.177-1.914zm.34 3.56c.03.267-.166 1.52-1.122 1.52-.491 0-.619-.378-.619-.6 0-.435.236-.957 1.396-.957.27 0 .299.03.346.037zM43.655 18.974c.461-2.627.547-4.762 1.648-4.373.193-1.016.379-1.41.59-1.84 0 0-.1-.021-.307-.021-.71 0-1.235.971-1.235.971l.141-.892h-1.476l-.988 6.155h1.627z" fill="#fff"/></g><defs><clipPath id="clip0"><path fill="#fff" transform="translate(.272)" d="M0 0h54.545v30H0z"/></clipPath></defs></svg>
